X: 21908
T: Kit O'Mahony
R: jig
M: 6/8
K: Gmajor
|:B3 ABA|GAG FGA|B/c/dB cAF|DGG G2A|
B2G AGF|DGE FGA|g/f/ed cAF|DGG G2D:|
|:GB/c/d deg|f2d cAF|GB/c/d def|g3 def|
g2e fed|edB cde|g/f/ed cAF|DGG G2D:|
|:GBd cAc|BGG GB/c/d|gdB cAE|FGA cAF|
GBd cAc|BGG G2g|fed cAF|1 DGG G2D:|2 DGG GB/c/d||
|:g3 dBG|fed cAF|GB/c/d deg|f3 def|
g3 afd|bag afd|g/f/ed cAF|1 DGG GB/c/d:|2 DGG G2D||

